X:1
T:2 Songs, Op.60
T:The River
T:2 Songs, Op. 60
T:Edward Elgar
T:2. The River
T:Paraphrased by Pietro d'Alba and Edward Elgar
T:Creative Commons copyright waiver (CC0 1.0 Universal)
T:Creative Commons copyright waiver (CC0 1.0 Universal)
T:Creative Commons copyright waiver (CC0 1.0 Universal)
T:Creative Commons copyright waiver (CC0 1.0 Universal)
T:Creative Commons copyright waiver (CC0 1.0 Universal)
T:Creative Commons copyright waiver (CC0 1.0 Universal)
C:Edward Elgar
Z:Pietro d'Alba and Edward Elgar - Pietro d'Alba (Peter Rabbit) is probably a pseudonym for Elgar.
Z:Creative Commons copyright waiver (CC0 1.0 Universal)
%%score ( 1 2 ) { ( 3 5 ) | ( 4 6 ) }
L:1/8
Q:1/4=144
M:2/2
K:Bb
V:1 treble nm="Voice"
V:2 treble 
V:3 treble nm="Piano"
V:5 treble 
V:4 bass 
V:6 bass 
V:1
"^Allegro con fuoco" x8 | z8 | z8 | z8 |[Q:1/4=138] z8 | z8 | !fermata!z8 || %7
w: |||||||
!f!"^risoluto"[Q:1/4=144] B4 G4 | A2 A4 B2 |"^accel."[Q:1/4=150] !>!c4 !>!d4 | %10
w: Ri- ver,|mo- ther of|fight- ing|
"^rit."[Q:1/4=136] G8 |!p!"^ad lib."[Q:1/4=150] ^F3/2 F/ F6 |!f!"^a tempo"[Q:1/4=144] G4 E4 | %13
w: men,|(Rus- tu- la!)|Stern- est|
 =F4 G4 | !tenuto!A4 !tenuto!B4 | E8 |!p!"^ad lib."[Q:1/4=140] D3/2 D/ D6 | %17
w: bar- rier|of our|land,|(Rus- tu- la!)|
"^a tempo""^espress."!f![Q:1/4=144] B6 A2 | A2 A6 | _A4 A4 |"^rit."[Q:1/4=138] (!>!_A4 G4) | %21
w: From thy|bo- som|we drew|life:  _|
!f!"^poco più lento" B4 G4 | =A2"^accel."[Q:1/4=142] B6 | !>!c4 !>!d4 | %24
w: An- cient,|hon- oured,|might- y,|
!ff!"^lento"[Q:1/4=130] (f4 !breath!e4) |"^maestoso"[Q:1/4=144] d3/2 d/ !fermata!d6- | d8- | d8 | %28
w: grand!  _|Rus- tu- la! |_||
 z8 |"^rit." z8[Q:1/4=134] | !fermata!z8 |!f!"^a tempo""^poco largamente"[Q:1/4=140] B4 G4 | %32
w: |||Oh! what|
 A4 B4 | c4 d4 | G8 |!p!"^ad lib.\nespress.\n"[Q:1/4=120] !>!G3/2 ^F/ F6 |!mf![Q:1/4=140] G4 E4 | %37
w: wor- ship|had been|thine,|(Rus- tu- la!)|Hadst thou|
"^dim." =F6 G2 | !wedge!A4 !wedge!B4 |!pp! !^!E8 |!p!"^ad lib.\nrit.\n"[Q:1/4=136] E3/2 D/ D6 | %41
w: held the|foe- men,|drowned;|(Rus- tu- la!)|
!f!"^a tempo"[Q:1/4=144] B4 B4 | B2 A6 | _A6 A2 |"^rit."[Q:1/4=138] G8 | %45
w: Flood, more|pre- cious|far than|wine,|
!f!"^più mosso"[Q:1/4=144] !wedge!B4 G4 |"^animato" =A2"^cresc." B6 | c6 z!ff! d | %48
w: Vic- tress,|sa- viour,|world- re-|
"^lento"[Q:1/4=130] (f4 !breath!e4) | d3/2 d/ !fermata!d6-[Q:1/4=144] | d8- | d8 | z8 | %53
w: nowned! *|Rus- tu- la! |_|||
[Q:1/4=136] z8 |!p!"^rit.\nespress.\n"[Q:1/4=130] (F6"^dim." D2) | !fermata!D8 || %56
w: |Rus- tu-|la!|
!p!"^più lento e legato"[Q:1/4=136] G6 E2 | F6 G2 | _A4 =A4 | A2 D6 | %60
w: Like a|girl be-|fore her|lo- ver,|
"^ad lib."[Q:1/4=120] !>!E3/2 D/ D6 |"^a tempo"[Q:1/4=144] D6 B,2 | C2 D6 | %63
w: (Rus- tu- la!)|How thou|fal- terdst, ‒ |
 !tenuto!E4 !tenuto!=E4 | A,8 |!p!"^ad lib."[Q:1/4=120] _E3/2 D/ D6 |!pp![Q:1/4=144] B6 B2 | %67
w: like a|slave; ‒|(Rus- tu- la!)|Sank and|
 A4 E4 | (_D4 _A2) A2 | _A2 G6 | z2 G4 G2 | F4 E4 | E6 E2 | (E4 !fermata!D4) | %74
w: faint- ed,|low  _ and|low- er,|When thy|mis- sion|was to|save. *|
"^molto animato"[Q:1/4=150]"^cresc." E2 D6 | G2 D6 |!f! _A2 G6 |!ff! B6 A2 | !fermata!A8 || %79
w: Cow- ard,|trai- tress,|shame- less!|Rus- tu-|la!|
"^a tempo"[Q:1/4=144] z8 | z8[Q:1/4=150] | z8[Q:1/4=144] |!ff!"^quasi recit." B6 G2 | !>!A2 B6 | %84
w: |||On thy|nar- rowed,|
 !wedge!c4 !wedge!d4 | !^!G8 |"^ad lib."[Q:1/4=120] B3/2 A/ !fermata!A4 z!<(! G!<)! | %87
w: nig- gard|strand,|(Rus- tu- la!) Des-|
"^a tempo"[Q:1/4=144] G4 E4 | z2 F4 G2 | !wedge!A4 !wedge!B4 | !^!E8 |"^ad lib." E3/2 D/ D6 | %92
w: \- pair- ing, ‒ |now the|ty- rant's|hand|(Rus- tu- la!)|
"^a tempo""^più lento    espress."!f![Q:1/4=138] B3 B B2 A2 | !>!A2"^accel."[Q:1/4=144] A6 | %94
w: Grips the last  _|rem- nant|
 z2 _A4 A2 | (_A4 G4) | z2!ff!"^largamente"[Q:1/4=140] _d4 c2 | z2 c4 z _c | !>!_c6 B2 | B8 | %100
w: of our|land,  _|Wound- ed|and a-|lone I|stand,|
"^presto"[Q:1/4=150] B4 z2 z G | !>!A2 B4 z2 | c3 c .d2 !fermata!z2 | %103
w: Tricked, de-|ri- ded,|im- po- tent!|
"^lento"[Q:1/4=130] (!fermata!f4 !fermata!e2) e2 |[Q:1/4=144] d8- | d8 |[Q:1/4=150] z8 | z8 | %108
w: Rus- * tu-|la! |_|||
 z8[Q:1/4=140] | z8 |[Q:1/4=120] z8 |!p!"^lento\nespress.\n"[Q:1/4=100] F6 D2 |!pp! !fermata!D8 |] %113
w: |||Rus- tu-|la!|
V:2
 x8 | x8 | x8 | x8 | x8 | x8 | x8 || x8 | x8 | x8 | x8 | x8 | x8 | x8 | x8 | x8 | x8 | x8 | x8 | %19
 x8 | x8 | x8 | x8 | x8 | x8 | x8 | x8 | x8 | x8 | x8 | x8 | x8 | x8 | x8 | x8 | x8 | x8 | x8 | %38
 x8 | x8 | x8 | x8 | x8 | x8 | x8 | x8 | x8 | x8 | x8 | x8 | x8 | x8 | x8 | x8 | x8 | x8 || x8 | %57
 x8 | x8 | x8 | x8 | x8 | x8 | x8 | A8 | x8 | x8 | x8 | x8 | x8 | x8 | x8 | x8 | x8 | x8 | x8 | %76
 x8 | !fermata!e6 x2 | x8 || x8 | x8 | x8 | x8 | x8 | x8 | x8 | x8 | x8 | x8 | x8 | x8 | x8 | x8 | %93
 x8 | x8 | x8 | x8 | x8 | x8 | x8 | x8 | x8 | x8 | x8 | x8 | x8 | x8 | x8 | x8 | x8 | x8 | x8 | %112
 x8 |] %113
V:3
!ff!"_marziale" !>![B,DB].G !>![A,CA].F !wedge![G,B,G]2 !wedge!E2 | %1
 !wedge![F,A,F]2 !wedge![A,CD]2 !^![G,B,D]4 | (B,3 C)!<(! (E3 D) | (G3 A) (c3 B)!<)! | %4
"^allargando" (e8 | [DGd]4) x4 |[K:bass] !fermata!G,,,6 z2 ||[K:treble]!f!"_a tempo" [DB]8 | %8
 [CA]8 |"_accel." !>![CG]4 !>![B,F]4 |"_rit." [B,E-]8 |!p! !fermata![E^F]8 |!f!"_a tempo" [B,G]8 | %13
 [B,=F]8 | !tenuto![EA]4 !tenuto![DB]4 | [C-E]8 | !fermata![CD]8 | %17
!f!"_a tempo" ([B,EB]4 [G,^C=E]4) | ([A,DA]4 [_G,=C_E]4) | ([_A,_D_A]4 [F,=B,=D]4) | %20
"_rit." [E,CE]8 |!f!"_colla parte" [B,DB]6 z2 | [=A,F=A]6 z2 | !>![G,CG]4 !>![F,B,F]4 | %24
!ff! (F4 E4) | !fermata![^F,CD]6"_a tempo" .D2 | %26
!ff! !>![B,DB].G !>![A,CA].F !wedge![G,B,G]2 !wedge!E2 | %27
 !wedge![F,A,F]2 !wedge![A,CD]2 !^![D,B,D]4 |!<(! (G3 A) (c3 B)!<)! | e8 | !fermata![DBd]8 | %31
!f!"_colla parte" [B,DB]6 z2 | [A,CA]6 z2 | !>![G,CG]4 !>![F,B,F]4 | [E,G,B,E]8 | %35
!p!"_colla parte" (G2 ^F6) |!mf! [B,G]8 |"_dim." [B,=F]8 | !wedge![EA]4 !wedge![DB]4 |!pp! (E8- | %40
"_colla parte" E2 D6) | ([B,EB]4 [G,^C=E]4) | ([A,DA]4 [_G,=C_E]4) | %43
 ([_A,_D_A]4"_dim." [F,=B,=D]4- |"_rit." [F,B,D]4 [E,CE]4) |!f!"_più mosso" [_B,D_B]6 z2 | %46
 [=A,F=A]6 z2 | [G,CG]4 [F,B,F]4 |"_colla parte" (F4 E4) | !fermata![^F,CD]6"_a tempo" .D2 | %50
!ff! !>![B,DB].G !>![A,CA].F !wedge![G,B,G]2 !wedge!E2 | %51
 !wedge![F,A,F]2 !wedge![A,CD]2 !^![D,B,D]4 |"_dim." .[F,A,F]2 .[A,CD]2 [G,B,D]4 | %53
!p!"_rit." .[F,A,F]2 .[A,CD]2 [G,B,D]4 |!pp!"_colla parte" ([F,A,F]6 [G,CD]2) | %55
 !fermata![G,B,D]8 ||!p!"_più lento" [B,G]8 | [B,F]8 | ([_A,E_A]4 [=A,D=A]4- | [A,DA]2 D6) | %60
"_colla parte"!pp! (E2 D6) |"_a tempo" ([G,D]8 | [G,C]4 [^F,D]4) | ([B,E]4 [A,=E]4- | [A,-A]8) | %65
"_colla parte" _E2 D6 |!pp! ([B,G]4 [^C=E]4 | [A,D]4 [=C_E]4 | [_A,_D]4 [=B,=D]4 | %69
 [G,C]4 [A,^CG]4) |"_dim." ([G,B,_DG]8 |!ppp! [_A,_A]8 |!pp!!>(! [=A,E-=A]8!>)! | %73
!ppp! !fermata![_A,_A]8) |"_molto animato""_cresc." (E2 D6) | [=B,DG]8 | (_A2 G6) | %77
!f! !fermata![^F,CE]8 | !fermata![^F,CD]8 ||[K:bass]!ff!"_con fuoco" G,,^F,,G,,B,, ^C,^B,,C,^F, | %80
 G,^F,"_accel."G,B,[K:treble] ^C^B,!<(!C^F | G^FGB ^c^B"_rit."ca!<)! | %82
"_colla parte"!ff! [Bdb]4 z4 | [A,=FA]4 z4 | !wedge![G,CG]4 !wedge![F,B,F]4 | [E,B,E-]8 | %86
"_colla parte" !fermata![E^F]8 |"_a tempo" G4 E4 | [=F,=F]6 [G,G]2 | %89
 !wedge![A,C^FA]4 !wedge![B,DGB]4 | !^![E,A,E]8 |"_colla parte" [E,F,B,E]2 [D,B,D]6 | %92
"_a tempo" [B,B]4 [G,^C-=E]4 |"_accel." [A,A]4 [_G,=C-_E]4 | [_A,_A]4 [F,=B,=D]4 | %95
 ([_A,_A]4 [G,G]4) |!ff! (!^![_D_d]6 [Cc]2) | (!^![Cc]6 [_C_c]2) | ([_C_c]6 [B,B]2) | B8 | %100
"_presto" [B,^CGB]4 z4 | [A,A]2 [B,B]4 z2 | .[CGc]2 z2 .[B,FB]2 !fermata!z2 | %103
 (!fermata!F4 !fermata!E4) |!p!"_a tempo" !///-![^F,CD]2 D,2!<(! !///-![F,CD]2 D,2 | %105
 !///-![^F,CD]2!<)! D,2- [D,F,CD]2 !wedge![D,D]2 | %106
!fff!"^presto\ncon fuoco\n" !>![B,DB].G !>![A,CA].F !wedge![G,B,G]2 !wedge!E2 | %107
 !wedge![F,A,F]2 !wedge![D,A,CD]2 [D,G,B,D]4 |"_dim.        rit." .[F,A,F]2 .[D,A,CD]2 [D,G,B,D]4 | %109
!p! .[F,A,F]2 .[A,CD]2"_molto   rit." [G,B,D]4 | .[F,A,F]2 .[A,CD]2 [G,B,D]4 | %111
"^lento"!pp!"_colla parte" ([F,A,F]6 !tenuto![A,CD]2) | !fermata![D,B,D]8 |] %113
V:4
 !>![G,,G,].B,, !>![F,,F,].A,, !wedge![E,,E,]2 !wedge![G,,G,]2 | %1
 !wedge![D,,D,]2 !wedge![F,,F,]2 !^!G,,4 | [G,,,G,,]4 [F,,,F,,]4 | [=E,,,=E,,]4 [D,,,D,,]4 | %4
!ped! !>!E,2 !>!F,2 (!>!A,7/2 G,/)!ped-up! |!ped! !^!B,6 x2 | !fermata!z8!ped-up! || [G,B,]8 | %8
 [F,A,]8 | !>![E,G,]4 !>![D,F,]4 | [C,-G,]8 | [C,A,]8 | [E,G,]8 | [D,=F,]8 | %14
 !tenuto![C,^F,]4 !tenuto![B,,G,]4 | [A,,-G,]8 |!p! !fermata![A,,^F,]8 | ([G,,E,]4 [A,,^C,]4) | %18
 ([^F,,D,]4 [_A,,=C,]4) | ([=F,,_D,]4 [G,,=B,,]4) | [C,,C,]8 | [G,,G,]6 z2 | [F,,F,]6 z2 | %23
 !>![E,,E,]4 !>![D,,D,]4 |!ped! [C,,C,]8!ped-up! | !fermata![A,,,A,,]6 .[D,,D,]2 | %26
 !>![G,,G,].B,, !>![=F,,=F,].A,, !wedge![E,,E,]2 !wedge![G,,G,]2 | %27
 !wedge![D,,D,]2 !wedge![F,,F,]2 !^![G,,G,]4 | [E,,E,]4 [D,,D,]4 | %29
!ped! !>!E,2 !>!F,2 (!>!A,7/2 G,/)!ped-up! | !fermata![G,,D,B,]8 | [G,,,D,,G,,]6 z2 | %32
 [F,,,F,,]6 z2 | !>![E,,,E,,]4 !>![D,,,D,,]4 | [C,,,C,,]8- | [C,,,C,,]8 | [E,G,]8 | [D,F,]8 | %38
 !wedge![C,^F,]4 !wedge![B,,G,]4 | [A,,-G,]8 | [A,,^F,]8 | ([G,,E,]4 [A,,^C,]4) | %42
 ([^F,,D,]4 [_A,,=C,]4) | ([=F,,_D,]4 [G,,=B,,]4- | [G,,-B,,]4 [C,,G,,C,]4) | [G,,G,]6 z2 | %46
 [F,,F,]6 z2 | [E,,E,]4 [D,,D,]4 | [C,,C,]8 | !fermata![A,,,A,,]6 .[D,,D,]2 | %50
 !>![G,,G,].B,, !>![F,,F,].A,, !wedge![E,,E,]2 !wedge![G,,G,]2 | %51
 !wedge![D,,D,]2 !wedge![F,,F,]2 !^![G,,G,]4 | .D,,2 .F,,2 G,,4 | %53
 .[D,,,D,,]2 .[F,,,F,,]2 [G,,,G,,]4 | ([D,,,D,,]4 [F,,,F,,]4) | !fermata![G,,,G,,]8 || [E,G,]8 | %57
 [D,F,]8 | G,4 ^F,4- | F,2 G,6 | [A,,^F,]8 | [B,,D,]8 | E,4 D,4- | D,4 ^C,4 | [^F,,A,,]8 | ^F,8 | %66
 (G,,4 G,4 | ^F,4 ^F,,4 | =F,,4 F,4 | =E,4 =E,,4- | E,,4 _E,,4) | [_A,,,E,,C,]8 | %72
 ([_G,,,_G,,]4 [F,,,F,,]4) | !fermata![=B,,,,=B,,,]8 | [^F,=A,]8 | [=F,_A,]8 | [E,G,]8 | %77
 !///-!D,,,2 !fermata!D,,2 !///-!D,,,2 D,,2 | !///-!D,,,2 D,,2- !fermata![D,,,D,,]4 || %79
 G,,,2 [B,,,,B,,,]2 [^C,,,^C,,]2 [^F,,,^F,,]2 | [G,,,G,,]2 [B,,,B,,]2 [^C,,^C,]2 [^F,,^F,]2 | %81
 [G,,G,]2 [B,,B,]2 [^C,^C]2 ^F,2 | G,4 z4 | [=F,,C,=F,]4 z4 | %84
 !wedge![E,,C,E,]4 !wedge![D,,B,,D,]4 | [C,,G,,C,-]8 | !fermata!C,8 | [C,,C,]8 | [B,,,B,,]8 | %89
 !wedge![A,,,A,,]4 !wedge![G,,,G,,]4 | !^![=F,,,=F,,]8 | z z/ [F,,B,,F,]/ [F,,B,,F,]6 | %92
 (D,2 E,2) ^C,4- | C,2 D,2 =C,4- | C,2 _D,2 [G,,=B,,]4 | [C,,C,]6 !tenuto![=B,,,=B,,]2 | %96
 !^![_B,,,_B,,]4 !^![C,,C,]4 | !^![=A,,,=A,,]4 !^![_C,,_C,]4 | !^![_A,,,_A,,]4 !^![B,,,B,,]4 | %99
 [G,,,G,,]4 [F,,,F,,]4 | [=E,,,=E,,]4 z4 | [_E,,,_E,,]6 z2 | .[E,,E,]2 z2 .[D,,D,]2 !fermata!z2 | %103
 !fermata![C,,C,]8 |!8vb(!!ped! !///-![A,,,,D,,,]2 A,,,2 !///-![A,,,,D,,,]2 A,,,2 | %105
 !///-![A,,,,D,,,]2 A,,,2- [A,,,,D,,,A,,,]2!8vb)!!ped-up! !wedge![D,,,D,,]2 | %106
 !>![G,,,G,,].B,,, !>![F,,,F,,].A,,, !wedge![E,,,E,,]2 !wedge![G,,,G,,]2 | %107
 !wedge![D,,,D,,]2 !wedge![F,,,F,,]2 [G,,,G,,]4 | .[D,,,D,,]2 .[F,,,F,,]2 [G,,,G,,]4 | %109
 .[D,,,D,,]2 .[F,,,F,,]2 [G,,,G,,]4 | .[D,,,D,,]2 .[F,,,F,,]2 [G,,,G,,]4 | %111
 ([D,,,D,,]4 [F,,,F,,]4) | [G,,,G,,]2 z2 !fermata!z4 |] %113
V:5
 x8 | x8 | [D,G,]4 [G,B,]4 | !arpeggio![G,B,]4 !arpeggio![B,F]4 |{/G} !>!E2 !>!F2 (!>!A7/2 G/) | %5
 !^!B6 (B/4G/4D/4B,/4[I:staff +1] G,/4D,/4B,,/4G,,/4) |[I:staff -1][K:bass] x8 ||[K:treble] x8 | %8
 x8 | x8 | x8 | x8 | x8 | x8 | x8 | x8 | x8 | x8 | x8 | x8 | x8 | x8 | x8 | x8 | [G,C]8 | x8 | x8 | %27
 x8 | !arpeggio![G,B,]4 !arpeggio![B,F]4 |{/G} !>!E2"_rit." !>!F2 (!>!A7/2 G/) | x8 | x8 | x8 | %33
 x8 | x8 | [A,E]8 | x8 | x8 | x8 | C8- | C8 | x8 | x8 | x8 | x8 | x8 | x8 | x8 | [G,C]8 | x8 | x8 | %51
 x8 | x8 | x8 | x8 | x8 || x8 | x8 | x8 | x8 | C8 | x8 | x8 | x8 | E4 D4 | A,8 | x8 | x8 | x8 | %69
 x8 | x8 | F4 E4 | x8 | (E4 !fermata!D4) | C8 | x8 | C8 | (B,6 A,2) | x8 ||[K:bass] x8 | %80
 x4[K:treble] x4 | x6 ^F2 | [DG]4 x4 | x8 | x8 | x8 | (B,2 !fermata!A,6) | [G,E]8 | D8 | x8 | x8 | %91
 x8 | (D2"_più lento" E2) x4 | C2 D2 x4 | C2 _D2 x4 | E6 !tenuto!D2 | _G4"_colla parte" [=E=GB]4 | %97
 F4 [_E_G__B]4 | _F4 [=D=F_A]4 | [B,E]4 [B,D_A]4 | x8 | [_EG]6 x2 | x8 | [G,C]8 | x8 | x8 | x8 | %107
 x8 | x8 | x8 | x8 | x8 | x8 |] %113
V:6
 x8 | x8 | x8 | x8 | C,,8 |{/[G,,,G,,]} [G,,D,]6 x2 | x8 || x8 | x8 | x8 | x8 | x8 | x8 | x8 | x8 | %15
 x8 | x8 | x8 | x8 | x8 | x8 | x8 | x8 | x8 | x8 | x8 | x8 | x8 | x8 | C,,8 | x8 | x8 | x8 | x8 | %34
 x8 | x8 | x8 | x8 | x8 | x8 | x8 | x8 | x8 | x8 | x8 | x8 | x8 | x8 | x8 | x8 | x8 | x8 | x8 | %53
 x8 | x8 | x8 || x8 | x8 | C,8 | B,,8 | x8 | x8 | A,,8 | G,,8 | x8 | x8 | x8 | x8 | x8 | x8 | x8 | %71
 x8 | C,,8 | x8 | x8 | x8 | x8 | x8 | x8 || x8 | x8 | x8 | x8 | x8 | x8 | x8 | x8 | x8 | x8 | x8 | %90
 x8 | [B,,,,B,,,]8 | G,,4 A,,4 | ^F,,4 _A,,4 | =F,,4 x4 | x8 | x8 | x8 | x8 | x8 | x8 | x8 | x8 | %103
 x8 |!8vb(! x8 | x6!8vb)! x2 | x8 | x8 | x8 | x8 | x8 | x8 | x8 |] %113

